dist/svg/u1F915.svg

<?xml version="1.0" encoding="UTF-8"?><svg id="Layer_1" xmlns="http://www.w3.org/2000/svg" viewBox="0 0 40 40"><rect x="-1" width="40" height="40" style="fill:none;"/><polygon points="36.24493 11.47217 36.27289 11.46497 36.24493 11.47217 36.24493 11.47217" style="fill:none;"/><polygon points="36.24609 11.47424 36.27289 11.46497 36.24493 11.47217 36.24609 11.47424" style="fill:#aba8a8;"/><g><circle cx="20" cy="20" r="17.5" style="fill:#ffc84d;"/><circle cx="15.49223" cy="24.67164" r="1.85812"/><circle cx="24.11777" cy="24.67164" r="1.85812"/><path d="M20,31.46885c1.90662,0,3.31952,.34142,4.16402,.62488,.38492,.1292,.68293-.34793,.39648-.63569-.84156-.84542-2.61236-1.57352-4.56051-1.57352-1.94815,0-3.71895,.7281-4.56051,1.57352-.28645,.28776,.01156,.76489,.39648,.63569,.84451-.28347,2.2574-.62489,4.16403-.62489Z" style="fill:#f80;"/><g><path d="M14.45312,19.48406c1.13982-.53151,1.67609-1.10009,2.12153-1.60727,.25688-.29248,.62145-.15774,.61836,.25826-.00668,.89863-.56203,2.12019-2.05553,2.81662-1.4935,.69643-2.78624,.33665-3.47893-.23586-.32066-.26503-.18954-.63092,.19964-.6397,.67485-.01522,1.45511-.06054,2.59494-.59205Z"/><path d="M25.54688,19.48406c-1.13982-.53151-1.67609-1.10009-2.12153-1.60727-.25688-.29248-.62145-.15774-.61836,.25826,.00668,.89863,.56203,2.12019,2.05553,2.81662,1.4935,.69643,2.78624,.33665,3.47893-.23586,.32066-.26503,.18954-.63092-.19964-.6397-.67485-.01522-1.45511-.06054-2.59494-.59205Z"/></g><path d="M21.43512,16.62354l-3.20795-.52112,17.17523-4.41376h0l-17.17535,4.41376,19.23114,3.12408,.00195-.01648c-.12018-2.6853-.8277-5.21649-2.02515-7.45374l-13.99988,4.86725Z" style="fill:#c2bfbe;"/><path d="M20,2.5c-7.06702,0-13.14044,4.19763-15.90308,10.22803,11.57397-.81427,18.86877-3.68161,20.60535-9.57025-1.49829-.4176-3.07074-.65778-4.70227-.65778Z" style="fill:#cacbcb;"/><path d="M35.435,11.75629c-.01178-.02203-.02075-.04572-.03259-.06763l-24.30286,3.2559,26.35865,4.28194,.00195-.01648c-.12018-2.6853-.8277-5.21649-2.02515-7.45374Z" style="fill:#cacbcb;"/><path d="M24.70227,3.15778c-4.95349,.96881-12.52136,3.41846-20.60535,9.57025-.63,1.37512-1.08252,2.84406-1.33875,4.38287-.15686,.94189-.25818,1.90271-.25818,2.8891,0,.04797,.00684,.09424,.0072,.14215L35.4024,11.68866c-2.23346-4.13031-6.08521-7.24451-10.70013-8.53088Z" style="fill:#e4e7ea;"/><path d="M21.43512,16.62354l13.99988-4.86725c-.01178-.02203-.02075-.04572-.03259-.06763l-17.17523,4.41376,3.20795,.52112Z" style="fill:#a1a4a4;"/></g></svg>

<svg id="Layer_1" data-name="Layer 1" xmlns="http://www.w3.org/2000/svg" viewBox="0 0 40 40"><defs><style>.cls-1{fill:none;}.cls-2{fill:#aba8a8;}.cls-3{fill:#ffc84d;}.cls-4{fill:#f80;}.cls-5{fill:#c2bfbe;}.cls-6{fill:#cacbcb;}.cls-7{fill:#e4e7ea;}.cls-8{fill:#a1a4a4;}</style></defs><rect class="cls-1" x="-1" width="40" height="40"/><polygon class="cls-1" points="36.245 11.472 36.273 11.465 36.245 11.472 36.245 11.472"/><polygon class="cls-2" points="36.246 11.474 36.273 11.465 36.245 11.472 36.246 11.474"/><circle class="cls-3" cx="20" cy="20" r="17.5"/><circle cx="15.492" cy="24.672" r="1.858"/><circle cx="24.118" cy="24.672" r="1.858"/><path class="cls-4" d="M20,31.469a13.126,13.126,0,0,1,4.164.625.385.385,0,0,0,.4-.636A6.82,6.82,0,0,0,20,29.885a6.82,6.82,0,0,0-4.561,1.573.385.385,0,0,0,.4.636A13.126,13.126,0,0,1,20,31.469Z"/><path d="M14.453,19.484a5.834,5.834,0,0,0,2.122-1.607c.257-.293.621-.158.618.258a3.257,3.257,0,0,1-2.056,2.817,3.256,3.256,0,0,1-3.478-.236c-.321-.265-.19-.631.2-.64A5.822,5.822,0,0,0,14.453,19.484Z"/><path d="M25.547,19.484a5.834,5.834,0,0,1-2.122-1.607c-.257-.293-.621-.158-.618.258a3.257,3.257,0,0,0,2.056,2.817,3.256,3.256,0,0,0,3.478-.236c.321-.265.19-.631-.2-.64A5.822,5.822,0,0,1,25.547,19.484Z"/><path class="cls-5" d="M21.435,16.624,18.227,16.1,35.4,11.689h0L18.227,16.1l19.231,3.125,0-.017a17.409,17.409,0,0,0-2.025-7.454Z"/><path class="cls-6" d="M20,2.5A17.49,17.49,0,0,0,4.1,12.728c11.574-.814,18.869-3.682,20.605-9.57A17.45,17.45,0,0,0,20,2.5Z"/><path class="cls-6" d="M35.435,11.756c-.012-.022-.021-.045-.033-.067L11.1,14.945l26.358,4.282,0-.017A17.409,17.409,0,0,0,35.435,11.756Z"/><path class="cls-7" d="M24.7,3.158a50.145,50.145,0,0,0-20.6,9.57,17.336,17.336,0,0,0-1.339,4.383A17.524,17.524,0,0,0,2.5,20c0,.048.007.094.007.142l32.9-8.453A17.523,17.523,0,0,0,24.7,3.158Z"/><path class="cls-8" d="M21.435,16.624l14-4.868c-.012-.022-.021-.045-.033-.067L18.227,16.1Z"/></svg>
